picto/luggage-deposit-framed.svg

<svg class="color-immutable" width="30" height="30" viewBox="0 0 30 30" fill="none" xmlns="http://www.w3.org/2000/svg"><path d="M30 30H0V0H30V30Z" fill="#2D327D"/><path d="M25.5 3C26.325 3 27 3.675 27 4.5V25.5C27 26.325 26.325 27 25.5 27H4.5C3.675 27 3 26.325 3 25.5V4.5C3 3.675 3.675 3 4.5 3H25.5ZM25.5 2.625H4.5C3.46613 2.625 2.625 3.46613 2.625 4.5V25.5C2.625 26.5339 3.46613 27.375 4.5 27.375H25.5C26.5339 27.375 27.375 26.5339 27.375 25.5V4.5C27.375 3.46613 26.5339 2.625 25.5 2.625Z" fill="white"/><path d="M6 10.5H6.675V11.625H6V10.5Z" fill="white"/><path d="M6 22.125H6.675V23.25H6V22.125Z" fill="white"/><path d="M7.42505 9.75H8.47505V24H7.42505V9.75Z" fill="white"/><path d="M9.15002 22.1625H20.85V23.25H9.15002V22.1625Z" fill="white"/><path d="M19.7258 13.8379H16.8004V13.2752C16.8004 12.759 16.3804 12.3375 15.863 12.3375H14.1368C13.6194 12.3375 13.2004 12.759 13.2004 13.2752V13.8379H10.275C9.65338 13.8379 9.1499 14.342 9.1499 14.9632V20.2517C9.1499 20.8719 9.6533 21.375 10.275 21.375H19.7258C20.3465 21.375 20.85 20.8719 20.85 20.2517V14.9632C20.85 14.342 20.3465 13.8379 19.7258 13.8379ZM16.1249 13.8379H13.8748V13.0135H16.1249V13.8379Z" fill="white"/><path d="M9.15002 10.5H20.85V11.5875H9.15002V10.5Z" fill="white"/><path d="M21.525 9.75H22.575V24H21.525V9.75Z" fill="white"/><path d="M23.325 10.5H24V11.625H23.325V10.5Z" fill="white"/><path d="M23.325 22.125H24V23.25H23.325V22.125Z" fill="white"/></svg>

<svg class="color-immutable" width="30" height="30" viewBox="0 0 30 30" fill="none" xmlns="http://www.w3.org/2000/svg"><g clip-path="url(#a)"><path d="M30 30H0V0h30v30Z" fill="#2D327D"/><path d="M25.5 3c.825 0 1.5.675 1.5 1.5v21c0 .825-.675 1.5-1.5 1.5h-21c-.825 0-1.5-.675-1.5-1.5v-21C3 3.675 3.675 3 4.5 3h21Zm0-.375h-21A1.877 1.877 0 0 0 2.625 4.5v21c0 1.034.841 1.875 1.875 1.875h21a1.877 1.877 0 0 0 1.875-1.875v-21A1.877 1.877 0 0 0 25.5 2.625Z" fill="#fff"/><path d="M6 10.5h.675v1.125H6V10.5ZM6 22.125h.675v1.125H6v-1.125ZM7.425 9.75h1.05V24h-1.05V9.75ZM9.15 22.163h11.7v1.087H9.15v-1.087ZM19.726 13.838H16.8v-.563a.939.939 0 0 0-.937-.938h-1.726a.938.938 0 0 0-.937.938v.563h-2.925c-.622 0-1.125.504-1.125 1.125v5.289c0 .62.503 1.123 1.125 1.123h9.45c.621 0 1.125-.503 1.125-1.123v-5.289c0-.621-.504-1.125-1.124-1.125Zm-3.601 0h-2.25v-.824h2.25v.824ZM9.15 10.5h11.7v1.088H9.15V10.5ZM21.525 9.75h1.05V24h-1.05V9.75ZM23.325 10.5H24v1.125h-.675V10.5ZM23.325 22.125H24v1.125h-.675v-1.125Z" fill="#fff"/></g><defs><clipPath id="a"><path fill="#fff" d="M0 0h30v30H0z"/></clipPath></defs></svg>
